X:113
T:113 The Grinders
C:Welch MS
I:abc2nwc
M:9/8
L:1/8
K:G
gfg edc BAG|gfg efg afd|gfg edc BAG|ABA A2B d2B|
gfg edc BAG|gfg efg afd|gfg edc BAG|ABA A2B d2B||
ABA A2B G2E|ABA A2B d2B|ABA A2B G2E|dBG GBc d2B|
ABA A2B G2E|ABA A2B d2B|ABA A2B G2E|dBG GBc d2B |]

